X:1
T:Title
%%score 1 ( 2 3 ) ( 4 5 6 )
L:1/8
Q:1/4=104
M:4/4
K:Eb
V:1 treble nm="Violin, Soprano"
V:2 treble nm="Grand Piano, Staff-1"
V:3 treble 
V:4 bass nm="Choir Pad, Christmas Morning (Bradury)"
V:5 bass 
V:6 bass 
V:1
 G2 G2 A2 G2 | F3 G E4 | B2 B2 c2 B2 | A3 B G4 | E2 E2 F2 G2 | A3 B c4 | F2 F2 G2 =A2 | B3 c d4 | %8
w: By~Golden~Shower,~1862 * * *||||||||
 e2 B2 G2 B2 | e2 B2 G2 B2 | e2 B2 G2 A2 | F4 E4- | E4 z4 |] %13
w: |||||
V:2
 [EG]2 [EG]2 [EA]2 [EG]2 | [DF]3 [DG] E4 | [EB]2 [EB]2 [Ec]2 [EB]2 | A3 B [EG]4 | %4
 E2 E2 [DF]2 [_DG]2 | A3 B [Ec]4 | F2 F2 [=EG]2 [_E=A]2 | B3 c [Fd]4 | [Ee]2 [DB]2 [EG]2 [FB]2 | %9
 [Ge]2 [FB]2 [EG]2 [DB]2 | [Ee]2 [DB]2 [EG]2 [EA]2 | [DF]4 E4- | E4 z4 |] %13
V:3
 x8 | x8 | x8 | E2 D2 z4 | x8 | C2 E2 z4 | x8 | D2 F2 z4 | x8 | x8 | x8 | x8 | x8 |] %13
V:4
 [E,B,]2 [E,B,]2 [E,C]2 [E,B,]2 | A,4 z4 | [G,B,]2 [G,B,]2 [A,E]2 [G,B,]2 | %3
 [F,C]2 [B,,B,]2 [E,B,]4 | [E,G,]2 [E,G,]2 [E,A,]2 [E,B,]2 | A,4 z4 | %6
 [F,=A,]2 [F,A,]2 [F,B,]2 [F,C]2 | B,4 z4 | [G,B,]2 [F,B,]2 [E,B,]2 [D,B,]2 | %9
 [C,E,]2 [D,F,]2 [E,G,]2 [F,A,]2 | [G,B,]2 [F,B,]2 [E,B,]2 [C,E,]2 | [B,,A,]4 [E,G,]4- | %12
 [E,G,]4 z4 |] %13
V:5
 x8 | B,,2 z B, [E,G,]4 | x8 | x8 | x8 | A,,2 z G, A,4 | x8 | B,,2 z =A, B,2 A,2 | x8 | x8 | x8 | %11
 x8 | x8 |] %13
V:6
 x8 | z2 B,,2 z4 | x8 | x8 | x8 | z2 E,2 z4 | x8 | z2 F,2 z4 | x8 | x8 | x8 | x8 | x8 |] %13

